apps/blog/src/assets/icons/circle-check.svg

<svg width="1em" height="1em" viewBox="0 0 80 80" fill="none" xmlns="http://www.w3.org/2000/svg">
  <g clip-path="url(#clip0_345_1358)">
    <path d="M40 0C17.9427 0 0 17.9427 0 40C0 62.0573 17.9427 80 40 80C62.0573 80 80 62.0542 80 40C80 17.9458 62.0573 0 40 0ZM40 73.8033C21.3633 73.8033 6.19672 58.6398 6.19672 40C6.19672 21.3602 21.3633 6.19672 40 6.19672C58.6398 6.19672 73.8033 21.3602 73.8033 40C73.8033 58.6398 58.6367 73.8033 40 73.8033Z" fill="currentColor"/>
    <path d="M58.3517 26.0883C57.0906 24.9419 55.1293 25.0318 53.9768 26.2989L35.0767 47.1108L25.9457 37.8282C24.7404 36.6074 22.7823 36.5888 21.5647 37.791C20.3439 38.99 20.3253 40.9513 21.5275 42.1721L32.9573 53.791C33.5429 54.3858 34.3361 54.7174 35.1664 54.7174C35.185 54.7174 35.2067 54.7174 35.2253 54.7205C36.0804 54.7019 36.8861 54.3363 37.4592 53.7043L58.5622 30.4664C59.7118 29.196 59.6189 27.2379 58.3517 26.0883Z" fill="currentColor"/>
  </g>
  <defs>
    <clipPath id="clip0_345_1358">
      <rect width="80" height="80" fill="currentColor"/>
    </clipPath>
  </defs>
</svg>

<svg xmlns="http://www.w3.org/2000/svg" fill="none" viewBox="0 0 80 80"><g fill="currentColor" clip-path="url(#a)"><path d="M40 0C17.943 0 0 17.943 0 40s17.943 40 40 40 40-17.946 40-40S62.057 0 40 0m0 73.803C21.363 73.803 6.197 58.64 6.197 40S21.363 6.197 40 6.197C58.64 6.197 73.803 21.36 73.803 40S58.637 73.803 40 73.803"/><path d="M58.352 26.088a3.1 3.1 0 0 0-4.375.21l-18.9 20.813-9.131-9.283a3.095 3.095 0 0 0-4.381-.037 3.095 3.095 0 0 0-.038 4.381l11.43 11.619a3.1 3.1 0 0 0 2.21.926c.018 0 .04 0 .058.004a3.1 3.1 0 0 0 2.234-1.017l21.103-23.238a3.1 3.1 0 0 0-.21-4.378"/></g><defs><clipPath id="a"><path fill="currentColor" d="M0 0h80v80H0z"/></clipPath></defs></svg>
